icons/media/pause-fill.svg

<svg width="32" height="32" viewBox="0 0 32 32" fill="none" xmlns="http://www.w3.org/2000/svg">
<path fill-rule="evenodd" clip-rule="evenodd" d="M6 6C6 4.89543 6.89543 4 8 4H12C13.1046 4 14 4.89543 14 6V26C14 27.1046 13.1046 28 12 28H8C6.89543 28 6 27.1046 6 26V6ZM18 6C18 4.89543 18.8954 4 20 4H24C25.1046 4 26 4.89543 26 6V26C26 27.1046 25.1046 28 24 28H20C18.8954 28 18 27.1046 18 26V6Z" fill="black"/>
</svg>

<svg width="32" height="32" viewBox="0 0 32 32" xmlns="http://www.w3.org/2000/svg">
    <path fill-rule="evenodd" d="M6 6a2 2 0 012-2h4a2 2 0 012 2v20a2 2 0 01-2 2H8a2 2 0 01-2-2V6zm12 0a2 2 0 012-2h4a2 2 0 012 2v20a2 2 0 01-2 2h-4a2 2 0 01-2-2V6z"/>
</svg>
